X:566
T: EIN GETREUES HERZ ZU WISSEN
N: F1121
O: Europa, Mitteleuropa, Deutschland
R: Moral - Lied, Treue
M: 4/4
L: 1/8
K: C
C2E2 | G3EDEFG | FEE2
G2G2 | c3BAGFE | D4
G2B2 | d3BABcd | cBB2
D2G2 | E2c2B2AB | G4
G2G2 | c2E2A2A2 | G4
E2G2 | c2e2d3B | c4

@@@ Tune index: 5997
